src/lib/packages/icons/src/assets/filled/delivery-cart.svg

<svg width="24" height="24" viewBox="0 0 24 24" fill="none" xmlns="http://www.w3.org/2000/svg">
<path d="M21.738 16.65C21.81 17.058 21.538 17.447 21.13 17.519L10.46 19.397C10.268 20.586 9.24301 21.5 8.00001 21.5C6.62101 21.5 5.50001 20.378 5.50001 19C5.50001 17.883 6.24106 16.946 7.25306 16.627L5.17103 4.77999C5.05203 4.10299 4.39703 3.65199 3.71803 3.76899L3.12404 3.86999C2.71904 3.93699 2.32802 3.66499 2.26002 3.25599C2.19102 2.84799 2.46504 2.46 2.87404 2.391L3.464 2.29099C4.947 2.03199 6.38496 3.031 6.64796 4.52L8.77699 16.636C9.42099 16.849 9.94698 17.31 10.241 17.913L20.87 16.042C21.279 15.969 21.667 16.242 21.738 16.65ZM10.213 12.722C10.576 14.781 11.716 15.579 13.775 15.216L17.4091 14.575C19.4681 14.212 20.266 13.072 19.903 11.013L19.262 7.37899C18.899 5.31999 17.759 4.52199 15.7 4.88499L12.0661 5.526C10.0071 5.889 9.20903 7.02899 9.57203 9.08799L10.213 12.722Z" fill="currentColor"/>
</svg>

<svg xmlns="http://www.w3.org/2000/svg" width="24" height="24" fill="none"><path fill="currentColor" d="M21.738 16.65a.75.75 0 0 1-.608.869l-10.67 1.878A2.498 2.498 0 0 1 8 21.5 2.503 2.503 0 0 1 5.5 19c0-1.117.741-2.054 1.753-2.373L5.171 4.78a1.257 1.257 0 0 0-1.453-1.011l-.594.101a.75.75 0 0 1-.25-1.479l.59-.1A2.762 2.762 0 0 1 6.648 4.52l2.129 12.116a2.5 2.5 0 0 1 1.464 1.277l10.629-1.871c.409-.073.797.2.868.608Zm-11.525-3.928c.363 2.059 1.503 2.857 3.562 2.494l3.634-.641c2.06-.363 2.857-1.503 2.494-3.562l-.641-3.634c-.363-2.059-1.503-2.857-3.562-2.494l-3.634.641c-2.059.363-2.857 1.503-2.494 3.562l.641 3.634Z"/></svg>
